digitransit-component/packages/digitransit-component-icon/src/assets/rail-waltti.svg

<svg width="24" height="24" viewBox="0 0 24 24" fill="none" xmlns="http://www.w3.org/2000/svg">
<path d="M18.9784 14.8381V7.06556C18.9784 5.39591 17.6245 2.4012 15.9549 2.4012H8.04687C6.37722 2.4012 5.02338 5.39591 5.02338 7.06556V14.8381C5.02338 16.5077 6.37722 18.682 8.04687 18.682H8.22129L7.47706 19.571H6.18502L5.36459 20.4465H6.74214L5.77523 21.6014H7.5558L8.52271 20.4465H15.4773L16.4442 21.6014H18.2248L17.2579 20.4465H18.6355L17.815 19.571H16.5247L15.7805 18.682H15.9549C17.6245 18.6829 18.9784 16.5086 18.9784 14.8381ZM16.9252 15.7779C16.4332 15.7779 16.0345 15.3791 16.0345 14.888C16.0345 14.3961 16.4332 13.9982 16.9252 13.9982C17.4171 13.9982 17.815 14.397 17.815 14.888C17.815 15.38 17.4162 15.7779 16.9252 15.7779ZM9.41511 4.26051H14.5849V5.13598H9.41511V4.26051ZM7.07573 15.7779C6.58381 15.7779 6.18587 15.3791 6.18587 14.888C6.18587 14.3961 6.58465 13.9982 7.07573 13.9982C7.56765 13.9982 7.96559 14.397 7.96559 14.888C7.96559 15.38 7.56765 15.7779 7.07573 15.7779ZM6.52962 12.0737C6.32642 12.0186 6.18502 11.8349 6.18502 11.6241V6.96311C6.18502 6.70657 6.39331 6.49829 6.64985 6.49829H17.3493C17.6059 6.49829 17.8142 6.70657 17.8142 6.96311V11.6249C17.8142 11.8358 17.6736 12.0195 17.4696 12.0745C16.6593 12.2921 14.5096 12.4691 11.9992 12.4691C9.48877 12.4691 7.33989 12.2913 6.52962 12.0737ZM14.7441 19.5719H9.25593L10.0002 18.6829H13.999L14.7441 19.5719Z" fill="white"/>
</svg>

<svg xmlns="http://www.w3.org/2000/svg" width="24" height="24" fill="none" viewBox="0 0 24 24">
 <path fill="#fff" d="M18.978 14.838V7.066c0-1.67-1.354-4.665-3.023-4.665H8.047c-1.67 0-3.024 2.995-3.024 4.665v7.772c0 1.67 1.354 3.844 3.024 3.844h.174l-.744.889H6.185l-.82.875h1.377l-.967 1.155h1.78l.968-1.154h6.954l.967 1.154h1.78l-.966-1.154h1.378l-.821-.876h-1.29l-.744-.889h.174c1.67 0 3.023-2.173 3.023-3.844m-2.053.94a.89.89 0 1 1 0-1.781.89.89 0 0 1 0 1.78M9.415 4.26h5.17v.875h-5.17zm-2.34 11.517a.89.89 0 1 1 0-1.78.89.89 0 0 1 0 1.78m-.545-3.704a.466.466 0 0 1-.345-.45v-4.66c0-.257.208-.466.465-.466h10.7c.256 0 .464.209.464.465v4.662c0 .21-.14.395-.344.45-.81.217-2.96.394-5.47.394-2.511 0-4.66-.178-5.47-.395m8.214 7.498H9.256l.744-.89H14z"/>
</svg>
